X:1
T:Title
T:Études-Tableaux, Op. 39 no. 2
T:Sergei Rachmaninoff
T:"The Sea and the Seagulls"
C:Composer
%%score { ( 1 4 5 ) | ( 2 3 ) }
L:1/8
Q:1/4=46
M:3/4
K:C
V:1 treble nm="Piano" snm="Pno."
V:4 treble 
V:5 treble 
V:2 treble 
V:3 treble 
V:1
 z6 | z6 | (e3 B2)[K:bass] (E,- | E,A,,) z[K:treble] (e2 b- | b e2 B2)[K:bass] (E,- | %5
 E,A,,) z[K:treble] (e2 b | eB) z (e2 a | be' c'3) (^f' | b4 a)(^f' | b4 a)(^f' |({ga)} g^f a4- | %11
 a2)(({ga)} g^f a2- | a2) (g2 x ^f) |[Q:1/4=48] (e3 B2)[K:bass][Q:1/4=50] (G,,- | %14
 G,,C,,) z[K:treble][Q:1/4=56] (e2 b- | b e2 B2)[K:bass][Q:1/4=64] (E, | %16
 G,,C,,) z[K:treble][Q:1/4=72] (^d e^f |[Q:1/4=80] ga b3 e'- | e')[Q:1/4=86](b g3 b- | %19
 b)(g[Q:1/4=80] e3 g- | g)[Q:1/4=72]e de dc- |[Q:1/4=68] c2[Q:1/4=64] (B2 c2) | %22
[K:bass][Q:1/4=56] .B,,2[K:treble] (Bc) c2 |[K:bass] .B,,2[K:treble][Q:1/4=52]({Bc} B^A c2- | %24
[Q:1/4=48] cB A[Q:1/4=42]_B =B[Q:1/4=24]b) |[Q:1/4=38] (b3 e2)[K:bass] (E,-[Q:1/4=46] | %26
 E,A,,) z[K:treble] (e2 b- | b e2 B2)[K:bass] (E,- | E,A,,) z[K:treble][Q:1/4=48] (e2 _b- | %29
 b[Q:1/4=50] e2 G2)[K:bass] (E,- | E,[Q:1/4=52]G,,) z[K:treble] (e2[Q:1/4=54] _b- | %31
 be{de} d^c e2- | e2)[Q:1/4=52]({de} d^c e2- | e[Q:1/4=50]d ^c[Q:1/4=48]d e[Q:1/4=32]a) | %34
[Q:1/4=46] (a3 d2)[K:bass][Q:1/4=48] (D,- | D,G,,) z[K:treble] d2[Q:1/4=50] (a- | %36
 a d2 A2)[K:bass] (D,- | D,[Q:1/4=52]G,,) z[K:treble] (d2[Q:1/4=54] _a- | ad{cd} cB d2- | %39
 d2)[Q:1/4=50]({cd} cB d2- |[Q:1/4=48] dc B[Q:1/4=46]c d[Q:1/4=32]g) | %41
[Q:1/4=46] (g3 c2)[K:bass] (C,- |[Q:1/4=48] C,F,,) z[K:treble] c2 g- | %43
[Q:1/4=50] g c2 x z[K:bass] (C,- |[Q:1/4=52] C,E,,) z[K:treble] c2 g- | %45
 g c2 x z[K:bass] (C,-[Q:1/4=54] |[Q:1/4=56] C,D,,) z[K:treble] (c2 g- |[Q:1/4=60] g c2- x G-C- | %48
 [CGc]6) |[K:bass] C,2 z2 z2 | z6 |[K:treble] !arpeggio![G_B_eg_b]6 | [FGcdg]6[Q:1/4=64] | %53
 [CEGc]6[K:bass] | (3(G,,E,C) (3(C,E,C) (3(B,,E,C) |[Q:1/4=68] (3(C,CE) (3(B,,B,E) (3(C,CE) | %56
[Q:1/4=72] (3(G,,CE) (3(C,B,E) (3(B,,CE) | %57
[Q:1/4=80] (3(E,CE) (3(G,,E,C)[K:treble][Q:1/4=82] (3(^G,EG) | %58
[Q:1/4=84] (3(!courtesy!=G,Ec) (3(^G,E^G)[K:bass] (3(^G,,C,[Q:1/4=72]C) | %59
[Q:1/4=68] [E,^G,^CE]4[K:treble][Q:1/4=82][Q:1/4=90] z2 | %60
 ([e^g][^A^d]) ([e^^f][^G^c]) ([eg][^^FB]) |[Q:1/4=84] ([^ce][E=A]) ([^B^d][^D^G]) ([ce][^C^^F]) | %62
 ([E^G][^A,^D]) ([E^^F][^G,^C]) ([EG][E,G,]) | z6 | z2[Q:1/4=80] !arpeggio![^^F,^A,^D^^F^A]4 | %65
[K:bass] [E,^G,^CE]6[Q:1/4=78]!8vb(!!8vb)! | %66
 z2[K:treble] !arpeggio![=G,B,E=GB]2[K:bass] [^^F,^A,^D^^F]2 | [E,^G,^CE]6!8vb(!!8vb)! | %68
 z2[Q:1/4=80] (3^E,^C^E (3=E,C^G | %69
[Q:1/4=84] (3^E,^C^E (3^G,,=E,C[K:treble][Q:1/4=88] (3A,!courtesy!=FA | %70
 (3^G,E=c[Q:1/4=90] (3A,FA[K:bass] (3A,,F,^C | %71
[Q:1/4=80] z[K:treble][Q:1/4=90] ([d'f'] [^c'e'][f_b] [d'f'][da]) | %72
 ([fa][!courtesy!=Be] [f^g][Ad] [fa][^Gc]) | ([df][F_B] [^ce][EA] [df][D^G]) | %74
 ([FA][B,E] [F^G][A,D] [FA][F,A,]) | z6 | z2 [FGBdf]4- | [FGBdf]6 | [B,FGB]6 | %79
 [G,B,EG]6[K:bass]!8vb(!!8vb)! | z2 z[K:treble][Q:1/4=94] ([g_b] [^fa][=f^g] | %81
 [e!courtesy!=g][G_B]) z4 | [^CGA^c]6 | z2 (3z!8va(! (a'^b (3=b^f'^a!8va)! | %84
 (3!courtesy!=a^c'^c) (3z[Q:1/4=86] c^B[Q:1/4=84] (3=B^f[Q:1/4=82]^A | %85
[Q:1/4=78] (3C[Q:1/4=76]^F[Q:1/4=70]^F,[Q:1/4=68][Q:1/4=64] z2[Q:1/4=44] z2[Q:1/4=48][Q:1/4=40][Q:1/4=32] | %86
[Q:1/4=48] (3E^GB z2 z2 | z2[Q:1/4=54] (^d'2 ^g2) |[Q:1/4=60] z2[K:bass] (B,2 E,2) | %89
 z2[K:treble] ^d2 x2 | z2[K:bass] (B,,2 E,,2) | z2[K:treble] (^D2 ^G,2) | z2 (f2 e2) | %93
 z2[Q:1/4=64] (^D2[Q:1/4=68] ^G,2) | z2[Q:1/4=72] (f2 e2) |[M:4/4][Q:1/4=74] z2 z f z2 z f | %96
 z2 z f z2 z f | z2 z f z2 z f | z2[Q:1/4=70] z f z2 z[Q:1/4=68] f | %99
 z2 z[Q:1/4=64] (f z2) z[Q:1/4=60] (f | z2) z[Q:1/4=52] (f z2) z[Q:1/4=24] f[Q:1/4=56][Q:1/4=48] | %101
[M:3/4][Q:1/4=38] z (e2 B2)[K:bass][Q:1/4=48] (E,-[Q:1/4=42][Q:1/4=46] | %102
 E,A,,) z[K:treble] (e2 b- | b e2 B2)[K:bass] (E,- | E,A,,) z[K:treble] (e2 e | %105
 e3 B2)[K:bass] (E, | C,F,,) z[K:treble] (e2 b- | b e2 B)[K:bass] (E,D, | %108
 C,F,,) z[K:treble][Q:1/4=46] (e2 e | e3 B2)[K:bass] (E,[Q:1/4=44] | A,,D,,) z[K:treble] (e2 b- | %111
 b e2 B)[K:bass] (3(E,D,C, | A,,D,,)[Q:1/4=48] z[K:treble] (^G AB[Q:1/4=54] | %113
 cd e3)[Q:1/4=56][Q:1/4=58] (e | g^g a3) (e[Q:1/4=64][Q:1/4=68] | %115
 g^g a[Q:1/4=74]e (3=g^g[Q:1/4=80]a | be' c'3) (a'[Q:1/4=84] | b4 c')(a'[Q:1/4=86] | b4 c')(a' | %119
 ba a3) (a' |{c'd'} c'a a3) (f' |[Q:1/4=82] ed f2) (e'd' |{ef} ed f2 ^c'd')[Q:1/4=78] | %123
 (cB d2)[Q:1/4=74] (c'a) |{cd} (cB d2)[Q:1/4=72] (ba) | (cB d2) (_B2 | d2) (A_B d=B) | %127
[K:bass][Q:1/4=60] E,,2[K:treble] (F2[Q:1/4=66] E2) |[K:bass] E,,2[K:treble] (F2 E2[Q:1/4=68] | %129
[K:bass] E,,2[K:treble] F2 E2- | %130
[Q:1/4=64] E[Q:1/4=58]E[Q:1/4=52] ^D[Q:1/4=48]E[Q:1/4=32] (3:2:2F2[Q:1/4=24] e- | %131
[Q:1/4=42] e) (e2 B2 e- | e b2 e'2 b'- | b' e'2 b2[Q:1/4=38] e- | e B2[Q:1/4=32] E2[Q:1/4=24] B,) | %135
[Q:1/4=36] [A,E]2 [F,B,]4 | [A,E]4 [B,^DAB]2- | [B,DAB]2 [E=FABe]4 | %138
[Q:1/4=16] (12:3:12x[Q:1/4=18] x x[Q:1/4=24] x x x x x x x x x[Q:1/4=16] [cegb]3 | %139
!pp! !fermata![Ace]6 |] %140
V:2
 (3(CEA (3B,EA (3CEA | (3A,EA (3CEA (3B,EA) | (3(CEA (3B,EA (3CEA | (3A,EA (3CEA (3B,EA) | %4
 (3(CEA (3B,EA (3CEA | (3A,EA (3CEA (3B,EA) | (3(CEA (3B,EA (3CEA | (3A,EA (3^DAB (3EAc) | %8
 (3(^FBd (3B^G^D (3EAc) | (3(^FB!courtesy!=d (3B^G^D (3EAc) | (3(^DAB) (3(EAc) (3(DAB) | %11
 (3(EAc) (3(^DAB) (3(EAc) | (3(^DAB) (3(=DAc) z2 | (3(CEG (3B,EG (3CEG | (3G,EG (3CEG (3B,E^G) | %15
 (3(CE^G (3B,E=G (3CEG | (3G,EG (3CE^G (3CEA) | (3(EGB) (3(^FAe) (3(GBg) | %18
 (3(^FAe) (3(EGd) (3(FAe) | (3(EGd) (3(DGB) (3(EGd) | %20
 (3(A,!courtesy!=D!courtesy!=F (3^G,^CE (3=G,=C_E) | (3(A,DF (3^G,^CE (3=G,=C_E) | %22
 (3(A,DF (3^G,^CE (3=G,=C_E) | (3(A,DF (3^G,^CE (3=G,=C_E) | (3(^F,B,D- (3DA,F, (3^E,^G,^C) | %25
 (3(!arpeggio![A,,E,=C][K:treble] EA (3B,EA (3CEA | (3A,EA (3CEA (3B,EA) | (3(CEA (3B,EA (3CEA | %28
 (3A,EA (3CEA (3^CE_B) | (3(^CE_B (3=CEB (3^CEB | (3G,E_B (3^CEB (3=CEB) | (3(^CE_B (3DEB (3CEB) | %32
 (3(_B,E_B (3DEB (3^CEB | (3_B,E_B (3^CEA (3A,CA) | %34
[K:bass] (3(!arpeggio![G,,D,_B,][K:treble] EG (3A,DG (3_B,DG | (3G,DG (3_B,DG (3A,DG) | %36
 (3(_B,DG (3A,DG (3B,DG | (3G,DG (3_B,DG (3=B,D_A) | (3(B,D_A (3CDA (3B,DA) | %39
 (3(_A,D_A (3CDA (3B,DA | (3_A,D_A (3B,DG (3G,B,G) | %41
[K:bass] (3(!arpeggio![F,,C,=A,][K:treble] CG (3^G,C=G (3A,CG | (3A,CG (3^G,C=G (3A,CG) | %43
 (3(A,CG (3^G,C[I:staff -1]=G[I:staff +1] (3A,CG) | (3(!courtesy!=G,CG (3A,CG (3^G,C=G) | %45
 (3(A,CG (3^G,C[I:staff -1]=G[I:staff +1] (3A,CG | (3F,CG (3A,CG (3^G,C=G) | %47
 (3A,CG (3^G,C[I:staff -1]=G-[I:staff +1][K:bass] A,2- | A,6 | %49
 (3(G,,E,C,,) (3(B,,E,C,,) (3(C,E,C,,) | (3(G,,E,C,,) (3(^F,,E,C,,) (3(G,,E,C,,) | %51
 !arpeggio![_B,,_E,G,_B,]6 | [A,,D,F,A,]6 | (3(C,E,[C,,G,,]) z2 z (^F,, | G,,C,,) z2 z2 | %55
 z (^F,, G,,C,,) z (C,,, | G,,C,,) z (_A, G,C, | _A,,G,, C,,C,,,) z (C | B,E, C,B,, C,,C,,,) | %59
 [^C,,,^C,,]6 | (3(^DE^G (3^^FED (3ED^C | (3B,^A,=A, (3^G,^^F,^F, (3E,^D,=D, | %62
 (3^C,^B,,=B,, (3^A,,=A,,^G,,- [^C,,G,,]2) | (3(^C,E,^C,,) (3(^B,,E,C,,) (3((C,E,C,,)) | %64
 (3(^G,,E,^C,,) (3(^C,^D,[C,,^^F,,]) (3(^B,,D,[C,,F,,]) | (3(^C,E,^C,,) (3(^B,,E,C,,) (3(C,E,C,,) | %66
 (3(^G,,E,^C,,) (3(^C,E,[C,,=G,,]) (3(^B,,^D,[C,,^^G,,]) | %67
 (3(^C,E,^C,,) (3(^B,,E,[C,,G,,]) (3(C,E,C,,) | (3(^G,,E,^C,,) z A, ^G,^C, | %69
 A,,^G,, ^C,,^C,,, z ^C | =CE, ^C,=C, ^C,,^C,,, | [D,,,D,,]6 | (3(EFA (3^GFE (3FED | %73
 (3CB,_B, (3A,^G,=G, (3F,E,_E, | (3D,^C,=C, (3B,,_B,,A,,- [D,,A,,]2) | %75
 (3(D,D,,F, (3^C,A,A,, (3D,F,D,, | (3A,,D,D,,) (3(F,G,,B,, (3E,^G,,B,, | %77
 (3F,!courtesy!=G,,D,, (3B,,D,,F,) (3(G,B,D, | (3^F,D=F, (3G,B,D,, (3G,,F,D,,) | %79
 (3(E,E,,G, (3^D,B,B,, (3E,G,E,, | (3B,,E,E,,) (3(G,A,,^C, (3^F,_B,,D, | %81
 (3G,A,,E,, (3^C,E,,G,) (3(A,^CE, | (3^G,E=G, (3A,^CE,, (3A,,G,E,,) | %83
 (3(^F,^F,,A, (3^E,^C^C, (3F,A,F,, | (3C,A,E,,) (3(^DA,^F, (3=DF,^C, | %85
 (3^G,^D,^F,, (3A,E,D, (3B,,A,[I:staff -1]^D) |[I:staff +1] [E,,B,,^G,]2[K:treble] (3(^D^GB (3EGB | %87
 (3B,^GB (3FGB (3EGc) | (3(E^GB (3^DGB (3EGB | (3B,^GB (3FGB) (3E[I:staff -1]^G[I:staff +1]c | %90
 (3(E^GB (3^DGB (3EGc | (3B,^GB (3FGB (3EGc) | (3(B,^GB (3^DGB (3EGc) | (3(B,^GB (3FGB (3EGc) | %94
 (3(B,^GB (3^DGB (3EGc) |[M:4/4] (3(F^GB (3EGc) (3(FGB (3EGc) | (3(F^GB (3EGc) (3(FGB (3EGc) | %97
 (3(F^GB (3EG=c) (3(FGB (3EG=c) | (3(F^GB (3EGc) (3(FGB (3EGc) | (3(F^GB (3EGc (3^DGB (3=DGc) | %100
 (3(F^GB (3EGc (3^DGB (3=DGc) |[M:3/4][K:bass] (3(!arpeggio![A,,E,C][K:treble] EA (3B,EA (3CEA | %102
 (3A,EA (3CEA (3B,EA) | (3(CEA (3B,EA (3CEA | (3A,EA (3CEA (3B,EA) | (3(CEA (3B,EA (3CEA | %106
 (3A,EA (3CEA (3B,EA) | (3(CEA (3B,EA (3CEA | (3A,EA (3CEA (3B,EA) | (3(CEA (3B,EA (3CEA | %110
 (3A,EA (3CEA (3B,EA) | (3(CEA (3B,EA (3CEA | (3A,EA (3CEF (3B,D=G) | (3(A,CA (3B,DA (3CEA | %114
 (3DFB (3CEA (3B,D=G) | (3(CEA (3B,C=G (3CEA | (3^DAB (3EAc (3FA^c) | (3(^FAd (3^GB^d (3Ace) | %118
 (3(^FA!courtesy!=d (3^GB^d (3Ace) | (3(DFc (3EG^c (3FAd) | (3(DFc (3EG^c (3FAB) | %121
 (3(B,DA (3CDA (3DFc) | (3(B,DA (3CDA (3DFc) | (3(A,DF (3B,DA (3CDc) | (3(A,DF (3B,DA (3CDc) | %125
[K:bass] (3(A,DF (3^G,DF (3=G,^CF | (3^G,DF (3=G,^CF (3=G,^CF) | %127
 (3z (B,,^G,- (3G,A,_B,- (3B,=G,^C,) | (3z (D,^G,- (3G,A,_B,- (3B,=G,^C,) | %129
 (3z (D,^G, (3^D,G,C (3E,A,C | (3F,A,^C (3^F,A,=D (3^G,=CE) | %131
 (3(!arpeggio![A,,E,C][K:treble] EA (3B,EA (3CEA | (3A,EA (3CEA (3B,EA | (3CEA (3B,EA (3CEA | %134
 (3A,EA C2) z2 |[K:bass] [F,,C,]2 [D,,A,,]4 | [F,,C,]4 [^F,,^D,A,]2- | [F,,D,A,]2 [G,,=D,=F,B,]4 | %138
 (12:3:12A,,,A,,[I:staff -1]E,[I:staff +1][K:treble]!pp! C-E-^G-B-[I:staff -1]c-e-^g-ab-[I:staff +1] [CEGB]3 | %139
 !fermata!z6 |] %140
V:3
 C2 B,2 C2 | A,2 C2 B,2 | C2 B,2 C2 | A,2 C2 B,2 | C2 B,2 C2 | A,2 C2 B,2 | C2 B,2 C2 | %7
 A,2 ^D2 E2 | ^F4 E2 | ^F4 E2 | ^D2 E2 D2 | E2 ^D2 E2 | ^D2 =D2 x2 | C2 B,2 C2 | G,2 C2 B,2 | %15
 C2 B,2 C2 | G,2 C2 C2 | B,2 x4 | B,2 x4 | B,2 x4 | x6 | x6 | x6 | x6 | x6 | x2/3[K:treble] x16/3 | %26
 x6 | x6 | x6 | x6 | x6 | x6 | G,6- | G,6 |[K:bass] x2/3[K:treble] x16/3 | x6 | x6 | x6 | x6 | %39
 F,6- | F,6 |[K:bass] x2/3[K:treble] x16/3 | x6 | x6 | x6 | x6 | x6 | x4[K:bass] x2 | %48
 z (F, D,G,, G,,,2) | x2 B,,2 C,2 | G,,2 ^F,,2 G,,2 | (3z (^F,,C,, (3G,,_E,C,, (3C,,C,,,C,,) | %52
 (3z (^F,,C,, (3G,,D,C,, (3C,,C,,,C,,) | C,2 x4 | x6 | x6 | x6 | x6 | x6 | %59
 z2 (3^G,,^C,E, (3^^F,^G,^C | x6 | x6 | x6 | ^C,2 ^B,,2 C,2 | ^G,,2 ^C,2 ^B,,2 | ^C,2 ^B,,2 C,2 | %66
 ^G,,2 ^C,2 ^B,,2 | ^C,2 ^B,,2 C,2 | ^G,,2 x4 | x6 | x6 | (3z z (^G,, (3A,,D,F, (3^G,A,D) | x6 | %73
 x6 | x6 | D,2 ^C,2 D,2 | A,,2 F,2 E,2 | F,2 B,,2 G,2 | ^F,2 G,2 G,,2 | E,2 ^D,2 E,2 | %80
 B,,2 G,2 ^F,2 | G,2 ^C,2 A,2 | ^G,2 A,2 A,,2 | ^F,2 ^E,2 F,2 | C,2 ^D2 =D2 | ^G,2 A,2 B,,2 | %86
 x2[K:treble] ^D2 E2 | B,2 F2 E2 | E2 ^D2 E2 | B,2 F2 E2 | E2 ^D2 E2 | B,2 F2 E2 | B,2 ^D2 E2 | %93
 B,2 F2 E2 | B,2 ^D2 E2 |[M:4/4] F2 E2 F2 E2 | F2 E2 F2 E2 | F2 E2 F2 E2 | F2 E2 F2 E2 | %99
 F2 E2 ^D2 =D2 | F2 E2 ^D2 =D2 |[M:3/4][K:bass] x2/3[K:treble] x16/3 | x6 | x6 | x6 | x6 | x6 | %107
 x6 | x6 | x6 | x6 | x6 | x6 | C,2 x4 | x6 | E,2 x4 | x6 | E6 | E6 | E,6 | E,6 | E,6 | E,6 | %123
 E,2 x4 | E,2 x4 |[K:bass] x6 | x6 | x6 | x6 | x6 | x6 | x2/3[K:treble] x16/3 | x6 | x6 | x6 | %135
[K:bass] x6 | x6 | x6 | x3/4[K:treble] x21/4 | x6 |] %140
V:4
 x6 | x6 | x5[K:bass] x | x3[K:treble] x3 | x5[K:bass] x | x3[K:treble] x3 | x6 | x6 | z2 .A,2 x2 | %9
 z2 .A,2 x2 | x6 | x6 | x6 | x5[K:bass] x | x3[K:treble] x3 | x5[K:bass] x | x3[K:treble] x3 | x6 | %18
 x6 | x6 | x6 | x6 |[K:bass] x2[K:treble] x4 |[K:bass] x2[K:treble] x4 | x6 | x5[K:bass] x | %26
 x3[K:treble] x3 | x5[K:bass] x | x3[K:treble] x3 | x5[K:bass] x | x3[K:treble] x3 | x6 | x6 | x6 | %34
 x5[K:bass] x | x3[K:treble] x3 | x5[K:bass] x | x3[K:treble] x3 | x6 | x6 | x6 | x5[K:bass] x | %42
 x3[K:treble] x3 | x10/3 (3:2:1G x[K:bass] x | x3[K:treble] x3 | x10/3 (3:2:1G x[K:bass] x | %46
 x3[K:treble] x3 | x6 | x6 |[K:bass] x6 | x6 |[K:treble] x6 | x6 | %53
 x2[K:bass] (3(B,,E,C) (3(C,E,C) | G,,2 C,2 B,,2 | C,2 B,,2 C,2 | G,,2 C,2 B,,2 | %57
 !courtesy!=E,2 G,,2[K:treble] ^G,2 | G,2 ^G,2[K:bass] ^G,,2 | %59
 z[K:treble] ([^c'e'] [^b^d'][ea]) ([c'e'][^c^g]) | x6 | x6 | x6 | x6 | x6 | %65
[K:bass] z2 ^G,,2!8vb(! ^C,,,2!8vb)! | x2[K:treble] x2[K:bass] x2 | z2 ^G,,2!8vb(! ^C,,,2!8vb)! | %68
 x6 | x4[K:treble] x2 | x4[K:bass] x2 | [F,A,DF]4[K:treble] x2 | x6 | x6 | x6 | x6 | x6 | x6 | x6 | %79
 z2 z2[K:bass]!8vb(! E,,,2!8vb)! | x3[K:treble] x3 | x6 | x6 | [A,^C^FA]4!8va(! z2!8va)! | x6 | %85
 x6 | E2 x4 | x6 | x2[K:bass] x4 | x2[K:treble] x4 | x2[K:bass] x4 | x2[K:treble] x4 | x6 | x6 | %94
 x6 |[M:4/4] (^D2 ^G,2) (D2 G,2) | (!courtesy!=D2 ^G,2) (D2 G,2) | (^C2 ^G,2) (^C2 G,2) | %98
 (!courtesy!=C2 ^G,2) (C2 G,2) | x8 | x8 |[M:3/4] x5[K:bass] x | x3[K:treble] x3 | x5[K:bass] x | %104
 x3[K:treble] x3 | x5[K:bass] x | x3[K:treble] x3 | x4[K:bass] x2 | x3[K:treble] x3 | %109
 x5[K:bass] x | x3[K:treble] x3 | x4[K:bass] x2 | x3[K:treble] x3 | x6 | x6 | x6 | x6 | x6 | x6 | %119
 x6 | x6 | x6 | x6 | x6 | x6 | x6 | x6 |[K:bass] x2[K:treble] x4 |[K:bass] x2[K:treble] x4 | %129
[K:bass] x2[K:treble] x4 | x6 | x6 | x6 | x6 | x6 | x6 | x6 | x6 | x3 z z2 | x6 |] %140
V:5
 x6 | x6 | x5[K:bass] x | x3[K:treble] x3 | x5[K:bass] x | x3[K:treble] x3 | x6 | x6 | x6 | x6 | %10
 x6 | x6 | x6 | x5[K:bass] x | x3[K:treble] x3 | x5[K:bass] x | x3[K:treble] x3 | x6 | x6 | x6 | %20
 x6 | x6 |[K:bass] x2[K:treble] x4 |[K:bass] x2[K:treble] x4 | x6 | x5[K:bass] x | %26
 x3[K:treble] x3 | x5[K:bass] x | x3[K:treble] x3 | x5[K:bass] x | x3[K:treble] x3 | x6 | x6 | x6 | %34
 x5[K:bass] x | x3[K:treble] x3 | x5[K:bass] x | x3[K:treble] x3 | x6 | x6 | x6 | x5[K:bass] x | %42
 x3[K:treble] x3 | x5[K:bass] x | x3[K:treble] x3 | x5[K:bass] x | x3[K:treble] x3 | x6 | x6 | %49
[K:bass] x6 | x6 |[K:treble] x6 | x6 | x2[K:bass] B,,2 C,2 | x6 | x6 | x6 | x4[K:treble] x2 | %58
 x4[K:bass] x2 | x[K:treble] x5 | x6 | x6 | x6 | x6 | x6 |[K:bass] x4!8vb(! x2!8vb)! | %66
 x2[K:treble] x2[K:bass] x2 | x4!8vb(! x2!8vb)! | x6 | x4[K:treble] x2 | x4[K:bass] x2 | %71
 x[K:treble] x5 | x6 | x6 | x6 | x6 | x6 | x6 | x6 | x4[K:bass]!8vb(! x2!8vb)! | x3[K:treble] x3 | %81
 x6 | x6 | x8/3!8va(! x10/3!8va)! | x6 | x6 | x6 | x6 | x2[K:bass] x4 | x2[K:treble] x4 | %90
 x2[K:bass] x4 | x2[K:treble] x4 | x6 | x6 | x6 |[M:4/4] x8 | x8 | x8 | x8 | x8 | x8 | %101
[M:3/4] x5[K:bass] x | x3[K:treble] x3 | x5[K:bass] x | x3[K:treble] x3 | x5[K:bass] x | %106
 x3[K:treble] x3 | x4[K:bass] x2 | x3[K:treble] x3 | x5[K:bass] x | x3[K:treble] x3 | %111
 x4[K:bass] x2 | x3[K:treble] x3 | x6 | x6 | x6 | x6 | x6 | x6 | x6 | x6 | x6 | x6 | x6 | x6 | x6 | %126
 x6 |[K:bass] x2[K:treble] x4 |[K:bass] x2[K:treble] x4 |[K:bass] x2[K:treble] x4 | x6 | x6 | x6 | %133
 x6 | x6 | x6 | x6 | x6 | x6 | x6 |] %140

